X:1
T:Lake Baikal
C:Edited by Zhiming
M:4/4
L:1/8
Q: 1/4=120
K:C
V:1
z2AB c2g2 |f8|z2ABc2f2|e8|
z2ee a2g2 |f2d4-dB|B2cd3f2|e8|
z2AB c2g2  |f8|z2ABc2f2|e8|
z2ee a2g2 |f2d4-dB|B2edd2cB|
A2AAA2a2|a8|z2Aag2g/2a/2g|e8|
z2eea2g2|f2d4-dc|B2cd-d2f2|e8
A2AAA2a2|a8|z2bc'd'2c'2|e8
z2ee a2g2 |f2d2-d4|g2ab-b2b2e'4|b8
z2AB c2g2 |f8|z2ABc2f2|e8|
z2ee a2g2 |f2d4-dB|B2edd2cb,|A8|
